X: 1
T: Peggy's Jig
C: Mike MacDougall
S: Hammy Hamilton "The Moneymusk"
R: jig
M: 6/8
L: 1/8
T: Cape Breton Jig #2
D: "Music at Matt Molloy's"
Z: Contributed 20040529214343 by Hiroyuki Yamada slainte_mha@infoseek.jp
K: Gmaj
BdB GBd|cBA E2G|FEF DFA|GBG D2c|
BdB GBd|cBA E2G|FEF AGF|G3 G3:|
ded def|gfg b2g|fef A2B|c3 B2c|
ded def|gfg b2g|fed cAF|G3 G3:|
